X: 1511
T: Within a Mile of Dublin   #2
T: mile ua baile-a.ta-clia.t.
R: reel
O: F.O'Neill
B: O'Neill's 1850 "Music of Ireland #1511
Z: usually played in D mixolydian (1 sharp) these days.
Z: transcribed by John B. Walsh, walsh@math.ubc.ca 8/23/96
Z: Compacted via repeats and multiple endings [JC]
M: C|
L: 1/8
K: D
(dB) |: ADDE FEFG | A>D ((3DDD) cABG | ADDE FEFG | AdcA [1 GcBc :|2 G2 |]
|: (FG) | Addc AGFG | Adde [1 fdec | Addc AGFG | AB=cA G2 :| [2 f2 ((3efg) | afge fdec | d=cAF G2 ||
